icons/discharge_lounge.svg

<svg width="48" height="48" viewBox="0 0 48 48" fill="none" xmlns="http://www.w3.org/2000/svg">
<path d="M23.0001 11V14H20.0001V16H23.0001V19H25.0001V16H28.0001V14H25.0001V11H23.0001Z" fill="black"/>
<path fill-rule="evenodd" clip-rule="evenodd" d="M6 9C6 7.34315 7.34315 6 9 6H39C40.6569 6 42 7.34315 42 9V39C42 40.6569 40.6569 42 39 42H9C7.34315 42 6 40.6569 6 39V9ZM8 9C8 8.44772 8.44771 8 9 8H39C39.5523 8 40 8.44771 40 9V35H37.3335C37.3334 34.9383 37.3276 34.8757 37.3156 34.8129L36.0268 28.0463L37.9615 21.2747C38.1132 20.7437 37.8057 20.1902 37.2747 20.0385C36.7437 19.8868 36.1902 20.1942 36.0384 20.7253L34.8391 24.923H27V26.923H28.3077V28.6154H27.7693C27.217 28.6154 26.7693 29.0631 26.7693 29.6154C26.7693 30.029 27.0204 30.3839 27.3785 30.5361L26.0475 34.6952C26.0151 34.7965 25.9997 34.8991 25.9997 35H22.0003C22.0003 34.8991 21.9848 34.7965 21.9524 34.6952L20.6215 30.5361C20.9796 30.3839 21.2307 30.029 21.2307 29.6154C21.2307 29.0631 20.783 28.6154 20.2307 28.6154H19.6923V26.923H21V24.923H13.1609L11.9615 20.7253C11.8098 20.1942 11.2563 19.8868 10.7253 20.0385C10.1943 20.1902 9.88677 20.7437 10.0385 21.2747L11.9732 28.0463L10.6843 34.8129C10.6724 34.8757 10.6666 34.9383 10.6665 35H8V9ZM39 40C39.5523 40 40 39.5523 40 39V37H8V39C8 39.5523 8.44772 40 9 40H39ZM34.0176 28.1871L34.0992 28.6154H30.3077V26.923H34.2677L34.0384 27.7253C33.9955 27.8755 33.9884 28.0337 34.0176 28.1871ZM35.3153 35L34.5534 31H29.3299L28.0499 35H35.3153ZM13.9824 28.1871L13.9008 28.6154H17.6923V26.923H13.7323L13.9615 27.7253C14.0045 27.8755 14.0116 28.0337 13.9824 28.1871ZM12.6847 35L13.4466 31H18.6701L19.9501 35H12.6847Z" fill="black"/>
</svg>

<svg
  xmlns="http://www.w3.org/2000/svg"
  width="24"
  height="24"
  viewBox="0 0 24 24"
  fill="none"
  stroke="currentColor"
  stroke-width="2"
  stroke-linecap="round"
  stroke-linejoin="round"
>
  <path d="M23 11v3h-3v2h3v3h2v-3h3v-2h-3v-3z" />
  <path
    fill-rule="evenodd"
    d="M6 9a3 3 0 0 1 3-3h30a3 3 0 0 1 3 3v30a3 3 0 0 1-3 3H9a3 3 0 0 1-3-3zm2 0a1 1 0 0 1 1-1h30a1 1 0 0 1 1 1v26h-2.666q0-.093-.018-.187l-1.29-6.767 1.935-6.771a1 1 0 0 0-1.923-.55l-1.199 4.198H27v2h1.308v1.692h-.539a1 1 0 0 0-.39 1.921l-1.332 4.16A1 1 0 0 0 26 35h-4a1 1 0 0 0-.048-.305l-1.33-4.159a1 1 0 0 0-.391-1.92h-.539v-1.693H21v-2h-7.84l-1.199-4.198a1 1 0 1 0-1.922.55l1.934 6.771-1.289 6.767a1 1 0 0 0-.018.187H8zm31 31a1 1 0 0 0 1-1v-2H8v2a1 1 0 0 0 1 1zm-4.982-11.813.081.428h-3.791v-1.692h3.96l-.23.802a1 1 0 0 0-.02.462M35.315 35l-.762-4H29.33l-1.28 4zm-21.333-6.813-.081.428h3.791v-1.692h-3.96l.23.802a1 1 0 0 1 .02.462M12.685 35l.762-4h5.223l1.28 4z"
    clip-rule="evenodd"
  />
</svg>
